packages/foundations/assets/icons/functional/images/transportation/bike_trailer_20_inverted.svg

<svg width="20" height="20" viewBox="0 0 20 20" fill="none" xmlns="http://www.w3.org/2000/svg">
<g clip-path="url(#clip0_2214_6660)">
<path fill-rule="evenodd" clip-rule="evenodd" d="M6.41459 12.0539C7.24302 12.0539 7.91459 12.7255 7.91459 13.5539C7.91459 14.3823 7.24302 15.0539 6.41459 15.0539C5.58616 15.0539 4.91459 14.3823 4.91459 13.5539C4.91459 12.7255 5.58616 12.0539 6.41459 12.0539ZM6.15434 4.98863C6.41459 5.02242 7.72033 5.35628 9.32815 6.06132C11.1329 7.06643 12.5389 8.12092 13.5451 9.23387C13.7818 9.49567 13.8321 9.8765 13.6714 10.1908L12.4609 12.6041C12.3167 12.8863 12.0274 13.0649 11.7105 13.0673C10.3966 13.0724 9.60428 13.0724 9.33344 13.0673C9.22899 11.6818 7.83184 10.5539 6.41459 10.5539C5.23595 10.5539 4.21607 11.2336 3.72552 12.2224L3.07388 12.1485C2.69031 12.1051 2.38418 11.8086 2.32847 11.4266C2.16605 10.2523 2.08484 9.56331 2.08484 9.35955C2.08484 9.1558 2.2269 8.52078 2.51103 7.45451C2.88175 5.78728 4.48966 4.715 6.15434 4.98863ZM17.89 11.445C17.9975 11.8648 17.7538 12.3748 17.2773 12.4792L15.1253 13.0298C14.6705 13.1462 14.2075 12.8718 14.0911 12.417C13.9837 11.9972 14.2152 11.5157 14.7039 11.3829L16.8559 10.8322C17.3107 10.7158 17.7737 10.9902 17.89 11.445ZM4.14884 6.68503L3.60445 8.2829C3.45478 8.72784 3.69413 9.20988 4.13908 9.35955C4.54979 9.49772 4.99211 9.3044 5.17546 8.92388L5.48209 8.03392C6.49711 8.22874 7.28762 8.49088 7.85362 8.82033L9.47797 9.78315C9.88072 10.0243 10.4027 9.89338 10.6439 9.49063C10.865 9.12145 10.7734 8.65205 10.4464 8.3906L9.03132 7.53412C8.27248 7.07967 7.45043 6.74192 6.59277 6.53153L5.08169 6.22048C4.69709 6.14342 4.31495 6.33944 4.14884 6.68503Z" fill="#1A1C1F"/>
</g>
<defs>
<clipPath id="clip0_2214_6660">
<rect width="20" height="20" fill="white"/>
</clipPath>
</defs>
</svg>

<svg xmlns="http://www.w3.org/2000/svg" width="20" height="20" fill="none"><g clip-path="url(#a)"><path fill="#1A1C1F" fill-rule="evenodd" d="M6.415 12.054a1.5 1.5 0 1 1 0 3 1.5 1.5 0 0 1 0-3m-.26-7.065c.26.033 1.565.367 3.173 1.072q2.707 1.505 4.217 3.173a.85.85 0 0 1 .126.957l-1.21 2.413a.85.85 0 0 1-.75.463q-1.971.008-2.378 0c-.104-1.385-1.501-2.513-2.918-2.513a3 3 0 0 0-2.69 1.668l-.651-.073a.85.85 0 0 1-.746-.722q-.243-1.763-.243-2.067 0-.307.426-1.905a3.203 3.203 0 0 1 3.643-2.466m11.735 6.456c.107.42-.136.93-.613 1.034l-2.152.55a.85.85 0 0 1-.421-1.646l2.152-.55a.85.85 0 0 1 1.034.612M4.149 6.685l-.545 1.598a.85.85 0 0 0 1.571.64l.307-.89q1.523.294 2.372.787l1.624.963a.85.85 0 0 0 .968-1.392l-1.415-.857a8.9 8.9 0 0 0-2.438-1.002L5.082 6.22a.85.85 0 0 0-.933.465" clip-rule="evenodd"/></g><defs><clipPath id="a"><path fill="#fff" d="M0 0h20v20H0z"/></clipPath></defs></svg>
